build/logo/ArtemisOutline.svg

<svg xmlns="http://www.w3.org/2000/svg" fill="none" viewBox="0 0 24 24" focusable="false"><path d="M0 0H24V24H0z"/><path fill="#74767B" fill-rule="evenodd" d="M11.8124 3.34675C11.9352 3.13691 12.162 3.01006 12.4051 3.01529L15.6551 3.0853C15.8933 3.09044 16.1109 3.22176 16.2265 3.43017L17.6963 6.08013C17.7515 6.17957 17.7804 6.2914 17.7804 6.40511L17.7804 6.54513C17.7804 6.66556 17.748 6.78377 17.6865 6.88732L16.3475 9.14126L17.7401 11.5386C17.7995 11.6408 17.8307 11.7569 17.8307 11.8751L17.8307 12.0251C17.8307 12.1469 17.7975 12.2664 17.7347 12.3708L16.3093 14.738L17.6907 17.1302C17.7495 17.232 17.7805 17.3476 17.7805 17.4652L17.7805 17.6051C17.7805 17.7206 17.7506 17.834 17.6939 17.9346L16.1636 20.6447C16.0448 20.8551 15.8218 20.9852 15.5802 20.9852L15.4806 20.9852L15.4656 20.9851L12.3254 20.9151C12.0901 20.9098 11.8748 20.7815 11.7582 20.577L10.4026 18.1981L7.493 18.1249C7.25835 18.119 7.04389 17.9907 6.9277 17.7868L5.41793 15.1368C5.36035 15.0357 5.33008 14.9214 5.33008 14.8051L5.33008 14.6651C5.33008 14.5465 5.36155 14.4301 5.42128 14.3277L6.80681 11.9513L5.44321 9.6351C5.38257 9.53208 5.35059 9.41472 5.35059 9.29519L5.35059 9.15517C5.35059 9.03748 5.38158 8.92187 5.44046 8.81997L7.00052 6.11996C7.1228 5.90833 7.35062 5.78008 7.59499 5.78531L10.3508 5.84431L11.8124 3.34675ZM11.437 8.96382L10.4173 7.18604L7.96251 7.13349L6.75538 9.22267L7.96941 11.2849L10.083 11.3389L10.3357 11.3443L11.588 9.23609L11.437 8.96382ZM12.7243 8.51485L12.6042 8.30547L11.5624 6.42705L12.77 4.36346L15.2414 4.4167L16.3781 6.46607L15.125 8.57545L12.7243 8.51485ZM10.0517 12.6785L10.4311 12.6882L11.5678 14.7456L10.3144 16.8555L7.90478 16.7948L6.73305 14.7382L7.96022 12.6335L10.0517 12.6785ZM11.5887 11.9789L12.7762 9.88359L15.26 9.93694L16.4267 11.9454L15.1373 14.0866L12.7642 14.0337L11.5887 11.9789ZM12.7467 15.4238L11.5608 17.524L12.7346 19.5838L15.1928 19.6386L16.3789 17.5381L15.1885 15.4769L12.7467 15.4238Z"/></svg>

<svg xmlns="http://www.w3.org/2000/svg" fill="none" viewBox="0 0 24 24" focusable="false"><path fill="#74767B" fill-rule="evenodd" d="M11.81 3.34c.12-.21.35-.33.59-.33l3.25.07c.24.01.46.14.57.35l1.47 2.65c.06.09.09.21.09.32v.14c0 .12-.04.24-.1.34l-1.34 2.26 1.4 2.39c.05.11.09.22.09.34v.15c0 .12-.04.24-.1.35l-1.43 2.36 1.39 2.4c.05.1.09.21.09.33v.14q0 .18-.09.33l-1.53 2.71c-.12.21-.34.34-.58.34h-.12l-3.14-.07a.69.69 0 0 1-.57-.34l-1.35-2.38-2.91-.07a.67.67 0 0 1-.57-.34l-1.51-2.65a.7.7 0 0 1-.08-.33v-.14c0-.12.03-.23.09-.34l1.38-2.37-1.36-2.32a.67.67 0 0 1-.09-.34v-.14c0-.12.03-.23.09-.34L7 6.11c.12-.21.35-.33.59-.33l2.76.06zm-.38 5.62-1.02-1.78-2.45-.05-1.21 2.09 1.21 2.06 2.12.05.25.01 1.25-2.11zm1.29-.45-.12-.21-1.04-1.88 1.21-2.06 2.47.05 1.13 2.05-1.25 2.11zm-2.67 4.16.38.01 1.13 2.06-1.25 2.11-2.41-.06-1.17-2.06 1.23-2.1zm1.53-.7 1.19-2.09 2.48.05 1.17 2.01-1.29 2.14-2.37-.05zm1.16 3.45-1.18 2.1 1.17 2.06 2.46.05 1.18-2.1-1.19-2.06z"/></svg>
